X: 60
T: Jimmy Ward's Jig
C: Jimmy Ward
R:jig
M:6/8
K:G
"G"~G3 GAB |"C"AGE "G"GED | ~G3 "C"AGE |"G"GED "D"DEF |
"G"~G3 GAB |"C" AGE "G"GAB |"C" cBA "G"BGE |1 "D"DED DEF:|2 "D"DED D3||
|: "C"cBA "G"BAG |"D" ABA AGE |"C" cBA "G"BGE |"D" DED D3 |
"C"cBA "G"BAG |"D" ABA ABc | dcA "C"AGE |1"D" DED D3 :|2 DED DEF|]


